assets/img/icons_pokemon/fire.svg

<svg width="256" height="256" viewBox="0 0 256 256" fill="none" xmlns="http://www.w3.org/2000/svg">
<g clip-path="url(#clip0_57_736)">
<path d="M128 256C198.692 256 256 198.692 256 128C256 57.3075 198.692 0 128 0C57.3075 0 0 57.3075 0 128C0 198.692 57.3075 256 128 256Z" fill="#E4613E"/>
<path d="M101.14 196.71C83.1 191.74 68.99 163.48 75.02 140.27C77.49 130.77 81.75 122.23 88.17 114.85C93.84 108.33 99.73 101.99 105.61 95.6599C122.06 77.9399 122.45 73.8199 109.28 54.7399C125.94 48.4099 145.07 61.5499 145.54 79.6099C145.77 88.5299 142.42 96.4499 138.99 104.39C136.13 111 135.05 117.61 140.45 125.85C141.23 118.07 140.7 111.87 145.61 106.73C151.05 101.03 155.6 99.1199 163.87 100.99C155.87 107.57 156.9 111.89 170.39 130.91C182.73 148.32 186.09 163.26 176.99 179.45C167.24 196.8 146.13 207.33 126.68 204.42C128 202.27 131.68 200.53 134.38 198.94C147.33 191.33 149.29 179.4 139.32 168.23C136.01 164.52 132.26 161.19 128.64 157.76C113.93 143.81 112.31 140.93 108.52 121.51C88.51 132.47 84.65 168.26 101.14 196.74V196.71Z" fill="white"/>
</g>
<defs>
<clipPath id="clip0_57_736">
<rect width="256" height="256" fill="white"/>
</clipPath>
</defs>
</svg>

<?xml version="1.0" encoding="UTF-8"?>
<svg id="Layer_1" data-name="Layer 1" xmlns="http://www.w3.org/2000/svg" viewBox="0 0 256 256">
  <defs>
    <style>
      .cls-1 {
        fill: #fff;
      }

      .cls-2 {
        fill: #e4613e;
      }
    </style>
  </defs>
  <circle class="cls-2" cx="128" cy="128" r="128"/>
  <path class="cls-1" d="M101.14,196.71c-18.04-4.97-32.15-33.23-26.12-56.44,2.47-9.5,6.73-18.04,13.15-25.42,5.67-6.52,11.56-12.86,17.44-19.19,16.45-17.72,16.84-21.84,3.67-40.92,16.66-6.33,35.79,6.81,36.26,24.87,.23,8.92-3.12,16.84-6.55,24.78-2.86,6.61-3.94,13.22,1.46,21.46,.78-7.78,.25-13.98,5.16-19.12,5.44-5.7,9.99-7.61,18.26-5.74-8,6.58-6.97,10.9,6.52,29.92,12.34,17.41,15.7,32.35,6.6,48.54-9.75,17.35-30.86,27.88-50.31,24.97,1.32-2.15,5-3.89,7.7-5.48,12.95-7.61,14.91-19.54,4.94-30.71-3.31-3.71-7.06-7.04-10.68-10.47-14.71-13.95-16.33-16.83-20.12-36.25-20.01,10.96-23.87,46.75-7.38,75.23Z"/>
</svg>
